_includes/icons/color-australia.svg

<svg fill="#666" height="50" viewBox="0 0 48 48" width="50" xmlns="http://www.w3.org/2000/svg"><path d="m2 10h44v28h-44z" fill="#283593"/><path d="m13 28 .59375 1.890625 1.8125-.703125-1.074219 1.65625 1.667969 1.015625-1.929687.171875.265625 1.96875-1.335938-1.441406-1.335937 1.441406.265625-1.96875-1.929688-.171875 1.667969-1.015625-1.074219-1.65625 1.8125.707031zm21.5 3 .296875.945313.90625-.351563-.535156.828125.832031.507813-.964844.085937.132813.984375-.667969-.71875-.667969.71875.132813-.984375-.964844-.085937.832031-.507813-.535156-.828125.90625.351563zm-5.035156-9.015625.296875.945313.90625-.351563-.535156.828125.832031.507813-.964844.085937.132813.984375-.667969-.71875-.667969.71875.132813-.984375-.964844-.085937.835937-.507813-.539062-.828125.90625.351563zm5.035156-5.984375.296875.945313.90625-.351563-.535156.828125.832031.507813-.964844.085937.132813.984375-.667969-.71875-.667969.71875.132813-.984375-.964844-.085937.832031-.507813-.535156-.828125.90625.351563zm6 5 .296875.945313.90625-.351563-.535156.828125.832031.507813-.964844.085937.132813.984375-.667969-.71875-.667969.71875.132813-.984375-.964844-.085937.832031-.507813-.535156-.828125.90625.351563zm-3.5 4 .273438.707031.726562.058594-.554687.492188.171875.742187-.617188-.402344-.617187.402344.171875-.742187-.554688-.492188.726563-.058594zm-35-13.042969 9.460938 5.90625 1.421875-2.378906-8.789063-5.484375h-2.09375zm22-1.957031h-1.640625l-8.785156 5.484375 1.421875 2.378906 9.003906-5.625zm-9.003906 5.769531-1.421875 2.375 9.375 5.855469h1.050781v-2.609375zm-12.996094 5.90625v2.324219h1.503906l9.378907-5.855469-1.421875-2.375zm22-6.675781h-22v4h22zm-13-5v14h4v-14z" fill="#fff"/><path d="m8.898438 19h1.742187l-8.007812 5h-.632813v-.695312zm.589843-4-7.488281-4.675781v1.089844l5.746094 3.585937zm8.070313 4 6.441406 4.019531v-1.085937l-4.699219-2.933594zm5.671875-9-8.007813 5h1.746094l7.03125-4.390625v-.609375zm-9.230469 0h-2v6h-10v2h10v6h2v-6h10v-2h-10z" fill="#e53935"/></svg>

<svg xmlns="http://www.w3.org/2000/svg" viewBox="0 0 48 48" width="50" height="50" fill="#666"><path d="M 2 10 L 46 10 L 46 38 L 2 38 Z" fill="#283593"/><path d="M 13 28 L 13.59375 29.890625 L 15.40625 29.1875 L 14.332031 30.84375 L 16 31.859375 L 14.070313 32.03125 L 14.335938 34 L 13 32.558594 L 11.664063 34 L 11.929688 32.03125 L 10 31.859375 L 11.667969 30.84375 L 10.59375 29.1875 L 12.40625 29.894531 Z M 34.5 31 L 34.796875 31.945313 L 35.703125 31.59375 L 35.167969 32.421875 L 36 32.929688 L 35.035156 33.015625 L 35.167969 34 L 34.5 33.28125 L 33.832031 34 L 33.964844 33.015625 L 33 32.929688 L 33.832031 32.421875 L 33.296875 31.59375 L 34.203125 31.945313 Z M 29.464844 21.984375 L 29.761719 22.929688 L 30.667969 22.578125 L 30.132813 23.40625 L 30.964844 23.914063 L 30 24 L 30.132813 24.984375 L 29.464844 24.265625 L 28.796875 24.984375 L 28.929688 24 L 27.964844 23.914063 L 28.800781 23.40625 L 28.261719 22.578125 L 29.167969 22.929688 Z M 34.5 16 L 34.796875 16.945313 L 35.703125 16.59375 L 35.167969 17.421875 L 36 17.929688 L 35.035156 18.015625 L 35.167969 19 L 34.5 18.28125 L 33.832031 19 L 33.964844 18.015625 L 33 17.929688 L 33.832031 17.421875 L 33.296875 16.59375 L 34.203125 16.945313 Z M 40.5 21 L 40.796875 21.945313 L 41.703125 21.59375 L 41.167969 22.421875 L 42 22.929688 L 41.035156 23.015625 L 41.167969 24 L 40.5 23.28125 L 39.832031 24 L 39.964844 23.015625 L 39 22.929688 L 39.832031 22.421875 L 39.296875 21.59375 L 40.203125 21.945313 Z M 37 25 L 37.273438 25.707031 L 38 25.765625 L 37.445313 26.257813 L 37.617188 27 L 37 26.597656 L 36.382813 27 L 36.554688 26.257813 L 36 25.765625 L 36.726563 25.707031 Z M 2 11.957031 L 11.460938 17.863281 L 12.882813 15.484375 L 4.09375 10 L 2 10 Z M 24 10 L 22.359375 10 L 13.574219 15.484375 L 14.996094 17.863281 L 24 12.238281 Z M 14.996094 15.769531 L 13.574219 18.144531 L 22.949219 24 L 24 24 L 24 21.390625 Z M 2 21.675781 L 2 24 L 3.503906 24 L 12.882813 18.144531 L 11.460938 15.769531 Z M 24 15 L 2 15 L 2 19 L 24 19 Z M 11 10 L 11 24 L 15 24 L 15 10 Z" fill="#fff"/><path d="M 8.898438 19 L 10.640625 19 L 2.632813 24 L 2 24 L 2 23.304688 Z M 9.488281 15 L 2 10.324219 L 2 11.414063 L 7.746094 15 Z M 17.558594 19 L 24 23.019531 L 24 21.933594 L 19.300781 19 Z M 23.230469 10 L 15.222656 15 L 16.96875 15 L 24 10.609375 L 24 10 Z M 14 10 L 12 10 L 12 16 L 2 16 L 2 18 L 12 18 L 12 24 L 14 24 L 14 18 L 24 18 L 24 16 L 14 16 Z" fill="#e53935"/></svg>
